X: 1
T: Jack Power's
M: 2/4
L: 1/8
R: polka
K: Edor
|:B|EA FD |EF GA|Bd BA|DF2A/B/|
FA FD|EF GA|dB AF|EE2 :|
|:B|ed BA|DE2 F/G/|Ad BA|DF AB|
ed BA|DE FA|dB AF|EE2:|
